images/icons/lock.svg

<svg width="52" height="52" viewBox="0 0 52 52" fill="none" xmlns="http://www.w3.org/2000/svg">
<g clip-path="url(#clip0)">
<path d="M40.625 52H11.375C8.68833 52 6.5 49.8138 6.5 47.125V24.375C6.5 21.6862 8.68833 19.5 11.375 19.5H40.625C43.3117 19.5 45.5 21.6862 45.5 24.375V47.125C45.5 49.8138 43.3117 52 40.625 52ZM11.375 22.75C10.4802 22.75 9.75 23.478 9.75 24.375V47.125C9.75 48.022 10.4802 48.75 11.375 48.75H40.625C41.5198 48.75 42.25 48.022 42.25 47.125V24.375C42.25 23.478 41.5198 22.75 40.625 22.75H11.375Z" fill="black"/>
<path d="M37.375 22.75C36.478 22.75 35.75 22.022 35.75 21.125V13C35.75 7.6245 31.3755 3.25 26 3.25C20.6245 3.25 16.25 7.6245 16.25 13V21.125C16.25 22.022 15.522 22.75 14.625 22.75C13.728 22.75 13 22.022 13 21.125V13C13 5.8305 18.8305 0 26 0C33.1695 0 39 5.8305 39 13V21.125C39 22.022 38.272 22.75 37.375 22.75Z" fill="black"/>
<path d="M26 36.8334C23.6102 36.8334 21.6667 34.8899 21.6667 32.5001C21.6667 30.1102 23.6102 28.1667 26 28.1667C28.3898 28.1667 30.3333 30.1102 30.3333 32.5001C30.3333 34.8899 28.3898 36.8334 26 36.8334ZM26 31.4167C25.4042 31.4167 24.9167 31.9021 24.9167 32.5001C24.9167 33.0981 25.4042 33.5834 26 33.5834C26.5958 33.5834 27.0833 33.0981 27.0833 32.5001C27.0833 31.9021 26.5958 31.4167 26 31.4167Z" fill="black"/>
<path d="M26 43.3333C25.103 43.3333 24.375 42.6053 24.375 41.7083V35.75C24.375 34.853 25.103 34.125 26 34.125C26.897 34.125 27.625 34.853 27.625 35.75V41.7083C27.625 42.6053 26.897 43.3333 26 43.3333Z" fill="black"/>
</g>
<defs>
<clipPath id="clip0">
<rect width="52" height="52" fill="white"/>
</clipPath>
</defs>
</svg>

<svg width="52" height="52" fill="none" xmlns="http://www.w3.org/2000/svg"><g clip-path="url(#a)" fill="#000"><path d="M40.625 52h-29.25A4.881 4.881 0 0 1 6.5 47.125v-22.75a4.881 4.881 0 0 1 4.875-4.875h29.25a4.881 4.881 0 0 1 4.875 4.875v22.75A4.881 4.881 0 0 1 40.625 52zm-29.25-29.25c-.895 0-1.625.728-1.625 1.625v22.75c0 .897.73 1.625 1.625 1.625h29.25c.895 0 1.625-.728 1.625-1.625v-22.75c0-.897-.73-1.625-1.625-1.625h-29.25z"/><path d="M37.375 22.75a1.626 1.626 0 0 1-1.625-1.625V13c0-5.375-4.375-9.75-9.75-9.75S16.25 7.625 16.25 13v8.125a1.626 1.626 0 0 1-3.25 0V13c0-7.17 5.83-13 13-13s13 5.83 13 13v8.125c0 .897-.728 1.625-1.625 1.625zM26 36.833a4.338 4.338 0 0 1-4.333-4.333A4.338 4.338 0 0 1 26 28.167a4.338 4.338 0 0 1 4.333 4.333A4.338 4.338 0 0 1 26 36.833zm0-5.416c-.596 0-1.083.485-1.083 1.083s.487 1.083 1.083 1.083 1.083-.485 1.083-1.083-.487-1.083-1.083-1.083z"/><path d="M26 43.333a1.626 1.626 0 0 1-1.625-1.625V35.75a1.626 1.626 0 0 1 3.25 0v5.958c0 .897-.728 1.625-1.625 1.625z"/></g><defs><clipPath id="a"><path fill="#fff" d="M0 0h52v52H0z"/></clipPath></defs></svg>
